X:1
T:Title
%%score { ( 1 3 ) | ( 2 4 ) }
L:1/8
M:4/4
K:Eb
V:1 treble nm="Grand Piano"
V:3 treble 
V:2 bass 
V:4 bass 
V:1
 z4 z2[Q:1/4=100] E2 | [DB]3 [DB] [Ec]2 [Fd]2 | [Ee]2 [Ee]2 [EG]2 c2 | z4 z2 A2 |[M:3/4] G6 | %5
[M:1/4] G2 |[M:4/4] z2 [Ge]2 d2 c2 | B2 [FB]2 [GB]2 [Gc]2 | d2 F2 F2 G=A |[M:3/4] B6 |[M:1/4] B2 | %11
[M:4/4] [FB]3 [FB] [Fc]2 [Fd]2 | [Ee]2 [Ee]2 [B,EG]2 [CEc]2 | [G,E]2 [A,F]G [DA]2 D-[DF] | %14
[M:7/4] [G,E]6 z2 z2 z4 |[M:4/4] [A,CE]4 [G,B,E]4 |] %16
V:2
 z4 z2 [E,G,]2 | [B,,F,]3 [B,,A,] [B,,A,]2 [B,,A,]2 | [C,G,]2 [C,A,]2 [B,,B,]2 [A,CE]2 | %3
 [A,C]2 [G,CE]2 [F,CE]2 [DF]C |[M:3/4] [G,=B,D]6 |[M:1/4] E z |[M:4/4] z4 .=A,2 .[=G,E]2 | %7
 [G,B,G]2 [D,B,]2 [E,B,]2 [=E,B,]2 | [F,B,F]2 [F,D]2 [F,=A,E]2 [F,E]-[F,CE] |[M:3/4] [B,D]6 | %10
[M:1/4] F, z |[M:4/4] [B,,A,]3 [B,,A,] [B,,A,]2 [B,,A,]2 | [C,G,]2 [C,A,]2 B,,2 A,,2 | %13
 B,,2 z G, F,C z A, |[M:7/4] E,6 z2 z2 z4 |[M:4/4] A,,4 E,4 |] %16
V:3
 x8 | x8 | x8 | F2 G2 A2 z E |[M:3/4] x6 |[M:1/4] z F |[M:4/4] [EG]2 z B, _GD z G | x8 | x8 | %9
[M:3/4] x6 |[M:1/4] D[G,E] |[M:4/4] x8 | x8 | z2 E2 z2 .[B,G]2 |[M:7/4] x14 |[M:4/4] x8 |] %16
V:4
 x8 | x8 | x8 | z4 z2 F,2 |[M:3/4] x6 |[M:1/4] [G,=B,]2 | %6
[M:4/4] [C,C]2 .[C,C]2 D,-[D,_G,]D,-[D,=A,] | x8 | z4 z2 .B,2 |[M:3/4] x6 |[M:1/4] B,,2 | %11
[M:4/4] x8 | x8 | z2 B,,2 B,,2 B,,2 |[M:7/4] x14 |[M:4/4] x8 |] %16

